layouts/icon-pack/spell_sharpen.svg

<?xml version="1.0" encoding="UTF-8"?>
<svg width="1200pt" height="1200pt" version="1.1" viewBox="0 0 1200 1200" xmlns="http://www.w3.org/2000/svg">
 <g fill="#fff">
  <path d="m525 799.78c25.449-29.328 57.84-51.809 94.219-65.391 4.4336-1.6836 8.2539-4.6719 10.953-8.5742 2.6992-3.8984 4.1523-8.5273 4.1641-13.27v-196.92c-0.011719-4.7422-1.4609-9.3672-4.1562-13.266-2.6953-3.8984-6.5078-6.8906-10.938-8.5781-36.918-13.789-69.727-36.734-95.344-66.68-2.207-2.6406-5.5391-4.0742-8.9727-3.8555-3.4375 0.21875-6.5625 2.0586-8.418 4.957-26.742 41.953-59.109 110.32-59.109 195.68 0 77.086 31.57 136.71 60.75 175.36 1.9727 2.6133 5.0234 4.1953 8.2969 4.3008 3.2734 0.10547 6.418-1.2773 8.5547-3.7617z"/>
  <path d="m800.09 515.62v196.88c0.011718 4.7422 1.4648 9.3711 4.1641 13.27 2.6992 3.9023 6.5195 6.8906 10.953 8.5742 36.363 13.609 68.738 36.105 94.172 65.438 2.1172 2.4922 5.25 3.8906 8.5195 3.8047 3.2695-0.085938 6.3242-1.6484 8.3086-4.25 29.203-38.648 60.75-98.273 60.75-175.36 0-85.359-32.344-153.73-59.109-195.68-1.8516-2.8984-4.9727-4.7383-8.4023-4.957-3.4336-0.21875-6.7617 1.2148-8.9648 3.8555-25.625 29.945-58.441 52.891-95.367 66.68-4.4023 1.6914-8.1914 4.6758-10.871 8.5547-2.6797 3.8789-4.1289 8.4805-4.1523 13.195z"/>
  <path d="m441.38 920.27c3.9961 3.9258 9.7812 5.4297 15.184 3.9531 5.4062-1.4766 9.6211-5.7109 11.066-11.125 3.9883-15.266 9.0664-30.223 15.188-44.766 2.1641-5.0156 2.9102-10.531 2.1641-15.945-0.75-5.4102-2.9648-10.516-6.4062-14.758-35.859-44.039-77.789-116.3-77.789-213.66 0-109.64 45.773-193.03 77.625-237.77 6.0078-8.3711 7.2773-19.254 3.3516-28.781-5.6328-13.68-10.332-27.73-14.062-42.047-1.4141-5.4609-5.6289-9.7578-11.062-11.277-5.4375-1.5156-11.266-0.023437-15.305 3.918-42.188 41.414-135.35 150.26-135.35 306.12 0 155.86 93.117 264.77 135.4 306.14z"/>
  <path d="m993.05 308.02c-4.0312-3.9453-9.8633-5.4375-15.297-3.9219-5.4297 1.5195-9.6406 5.8203-11.047 11.281-3.7422 14.312-8.4414 28.363-14.062 42.047-3.9297 9.5234-2.6719 20.406 3.3281 28.781 31.805 44.742 77.625 128.13 77.625 237.77 0 97.359-41.883 169.62-77.742 213.66-3.4375 4.2461-5.6484 9.3477-6.3984 14.762-0.74609 5.4102 0 10.922 2.1562 15.941 6.1328 14.539 11.207 29.496 15.188 44.766 1.4531 5.4141 5.6719 9.6484 11.078 11.125 5.4062 1.4727 11.191-0.03125 15.195-3.9531 42.188-41.391 135.38-150.26 135.38-306.14 0-155.88-93.117-264.7-135.4-306.12z"/>
  <path d="m694.12 509.74c-3.5273-0.007813-6.9141 1.3906-9.4102 3.8828-2.5 2.4922-3.9023 5.8789-3.9023 9.4062v607.78h72.656v-607.78c0-7.3398-5.9492-13.289-13.289-13.289z"/>
  <path d="m235.5 443.34c21.68-107.48 82.758-146.48 134.79-163.24 10.617-3.4219 10.641-20.414 0.16406-24.211-96.094-34.758-119.3-126.56-134.93-178.88-1.457-4.5977-5.7227-7.7227-10.547-7.7227-4.8242 0-9.0898 3.125-10.547 7.7227-15.633 52.383-37.805 146.55-134.93 178.88-10.57 3.5156-10.359 20.555 0.16406 24.211 55.43 19.219 111.61 55.758 134.79 163.24 2.2266 10.664 18.891 10.688 21.047 0z"/>
 </g>
</svg>

<?xml version="1.0" encoding="UTF-8" standalone="no"?>
<!DOCTYPE svg PUBLIC "-//W3C//DTD SVG 1.1//EN" "http://www.w3.org/Graphics/SVG/1.1/DTD/svg11.dtd">
<svg width="100%" height="100%" viewBox="0 0 510 512" version="1.1" xmlns="http://www.w3.org/2000/svg" xmlns:xlink="http://www.w3.org/1999/xlink" xml:space="preserve" xmlns:serif="http://www.serif.com/" style="fill-rule:evenodd;clip-rule:evenodd;stroke-linejoin:round;stroke-miterlimit:2;">
    <g transform="matrix(1,0,0,1,-71.6716,-69.2863)">
        <g transform="matrix(0.482326,0,0,0.482326,37.1025,35.8677)">
            <path d="M525,799.78C550.449,770.452 582.84,747.971 619.219,734.389C623.653,732.705 627.473,729.717 630.172,725.815C632.871,721.916 634.324,717.288 634.336,712.545L634.336,515.625C634.324,510.883 632.875,506.258 630.18,502.359C627.485,498.46 623.672,495.468 619.242,493.781C582.324,479.992 549.515,457.047 523.898,427.101C521.691,424.46 518.359,423.027 514.925,423.245C511.488,423.464 508.363,425.304 506.507,428.202C479.765,470.155 447.398,538.522 447.398,623.882C447.398,700.968 478.968,760.592 508.148,799.242C510.121,801.856 513.172,803.438 516.445,803.543C519.718,803.648 522.863,802.266 525,799.781L525,799.78Z" style="fill:white;fill-rule:nonzero;"/>
            <path d="M800.09,515.62L800.09,712.5C800.102,717.242 801.555,721.871 804.254,725.77C806.953,729.672 810.774,732.661 815.207,734.344C851.57,747.953 883.945,770.449 909.379,799.782C911.496,802.274 914.629,803.673 917.899,803.587C921.168,803.501 924.223,801.939 926.207,799.337C955.41,760.689 986.957,701.064 986.957,623.977C986.957,538.618 954.613,470.247 927.848,428.297C925.997,425.399 922.875,423.559 919.446,423.34C916.012,423.121 912.684,424.555 910.481,427.195C884.856,457.14 852.04,480.086 815.114,493.875C810.712,495.567 806.923,498.551 804.243,502.43C801.563,506.309 800.114,510.911 800.091,515.625L800.09,515.62Z" style="fill:white;fill-rule:nonzero;"/>
            <path d="M441.38,920.27C445.376,924.196 451.161,925.7 456.564,924.223C461.97,922.747 466.185,918.512 467.63,913.098C471.618,897.832 476.696,882.875 482.818,868.332C484.982,863.317 485.728,857.801 484.982,852.387C484.232,846.977 482.017,841.871 478.576,837.629C442.717,793.59 400.787,721.329 400.787,623.969C400.787,514.329 446.56,430.939 478.412,386.199C484.42,377.828 485.689,366.945 481.764,357.418C476.131,343.738 471.432,329.688 467.702,315.371C466.287,309.91 462.073,305.613 456.64,304.094C451.202,302.578 445.373,304.071 441.335,308.012C399.147,349.426 305.985,458.272 305.985,614.132C305.985,769.992 399.102,878.902 441.385,920.272L441.38,920.27Z" style="fill:white;fill-rule:nonzero;"/>
            <path d="M993.05,308.02C989.019,304.075 983.187,302.583 977.753,304.098C972.323,305.618 968.112,309.918 966.706,315.379C962.964,329.691 958.265,343.742 952.644,357.426C948.714,366.95 949.972,377.832 955.972,386.207C987.777,430.949 1033.6,514.337 1033.6,623.977C1033.6,721.336 991.714,793.597 955.855,837.637C952.418,841.883 950.207,846.985 949.457,852.399C948.711,857.809 949.457,863.321 951.613,868.34C957.746,882.879 962.82,897.836 966.801,913.106C968.254,918.52 972.473,922.755 977.879,924.231C983.285,925.704 989.07,924.2 993.074,920.278C1035.26,878.887 1128.45,770.018 1128.45,614.138C1128.45,458.258 1035.34,349.438 993.054,308.018L993.05,308.02Z" style="fill:white;fill-rule:nonzero;"/>
            <path d="M694.12,509.74C690.593,509.732 687.206,511.131 684.71,513.623C682.21,516.115 680.808,519.502 680.808,523.029L680.808,1130.81L753.464,1130.81L753.464,523.029C753.464,515.689 747.514,509.74 740.175,509.74L694.12,509.74Z" style="fill:white;fill-rule:nonzero;"/>
            <path d="M235.5,443.34C257.18,335.86 318.258,296.86 370.29,280.1C380.907,276.678 380.931,259.686 370.454,255.889C274.36,221.131 251.154,129.329 235.524,77.009C234.067,72.411 229.801,69.286 224.977,69.286C220.153,69.286 215.887,72.411 214.43,77.009C198.797,129.392 176.625,223.559 79.5,255.889C68.93,259.405 69.141,276.444 79.664,280.1C135.094,299.319 191.274,335.858 214.454,443.34C216.681,454.004 233.345,454.028 235.501,443.34L235.5,443.34Z" style="fill:white;fill-rule:nonzero;"/>
        </g>
    </g>
</svg>
